X:1
T:James Gibb editions
T:Now are the days of humblest prayer - Barnby
%%score [ ( 1 2 ) ( 3 4 ) ]
L:1/8
Q:1/4=69
M:4/4
K:F
V:1 treble nm="Midi_74"
V:2 treble 
V:3 bass nm="Midi_74"
V:4 bass 
V:1
"^Isaiah (888. 66. 86)""^Frederick William Faber\n(1814-63)""^Now are the days of humblest prayer""^Joseph Barnby\n(1838-96)" F2 | %1
w: |
 F2 G2 B2 A2 | G2 G2 F2 ||"^1" G2 |"^1" A2 =B2 c2 e2 | d2 d2 c2 || _e2 | d2 c2 A2 B2 | %8
w: |||||||
 A2 F2[Q:1/4=35] !fermata!A2 ||[M:4/4][Q:1/4=35]"^Refrain"[Q:1/4=69][Q:1/4=35] G2 | F2 G2 A2 G2 | %11
w: |O|hear- ken when we|
 F6 || G2 | A2 B2 d3 c | c4 c2- || c2 | c2 B2 A2 G2 | F2 G2 A2 || A2 | G2 F2 F2 E2 | F6 || F4 F4 |] %22
w: cry,|Chas-|tise us with Thy|fear; Yet,||Fa- ther! in the|mul- ti- tude|Of|Thy com- pas- sions,|hear!|A- men.|
V:2
 C2 | C2 C2 B,2 C2 | D2 C2 A,2 || C2 | C2 F2 E2 E2 | A2 G2 E2 || F2 | F2 E2 F2 D2 | ^C2 D2 C2 || %9
[M:4/4] ^C2 | D2 F2 F2 E2 | F6 || C2 | F2 E2 D2 E2 | F6 || F2 | F2 F2 E2 E2 | F2 F2 F2 || E2 | %19
 D2 C2 C2 C2 | C6 || D4 C4 |] %22
V:3
 A,2 | A,2 G,2 F,2 F,2 | F,2 E,2 F,2 || C2 | C2 D2 C2 C2 | C2 =B,2 C2 || C2 | B,2 G,2 F,2 G,2 | %8
 E,2 F,2 E,2 ||[M:4/4] A,2 | A,2 D2 C2 B,2 | A,6 || G,2 | C2 C2 B,2 B,2 | C6 || F2 | %16
"^1 Now are the days of humblest prayer,\nWhen consciences to God lie bare,\nAnd mercy most delights to spare. [Refrain]\n\n2 Now is the season, wisely long,\nOf sadder thought and graver song,\nWhen ailing souls grow well and strong. [Refrain]\n\n3 The feast of penance! Oh so bright,\nWith true conversion’s heavenly light,\nLike sunrise after stormy night! [Refrain]\n\n4 Oh happy time of blessèd tears,\nOf surer hopes, of chastening fears,\nUndoing all our evil years. [Refrain]" E2 D2 C2 B,2 | %17
 A,2 B,2 C2 || C2 | %19
"^5 We, who have loved the world, must learn,\nUpon that world our backs to turn,\nAnd with the love God to burn. [Refrain]\n\n6 Vile creatures of such little worth!\nThan we, there can be none on earth\nMore fallen from their Christian birth. [Refrain]\n\n7 Full long in sins dark ways we went,\nYet now our steps are heavenward bent,\nAnd grace is plentiful in Lent. [Refrain]\n\n8 All glory to redeeming grace,\nDisdaining not our evil case,\nBut showing us our Saviours face! [Refrain]" B,2 A,2 G,2 G,2 | %20
 A,6 || B,4 A,4 |] %22
V:4
 F,2 | F,2 E,2 D,2 A,,2 | B,,2 C,2 F,2 || E,2 | F,2 D,2 A,2 G,2 | F,2 G,2 C,2 || A,,2 | %7
 B,,2 C,2 D,2 G,,2 | A,,2 D,2 !fermata!A,,2 ||[M:4/4] A,,2 | D,2 B,,2 C,2 C,2 | F,6 || E,2 | %13
 F,2 G,2 B,2 G,2 | A,6 || A,,2 | B,,2 B,,2 C,2 C,2 | D,2 D,2 A,,2 || A,,2 | B,,2 F,,2 C,2 C,2 | %20
 F,,6 || B,,4 F,,4 |] %22

